X:1
T:Title
%%score 1 2 3 4
L:1/8
Q:1/4=96
M:4/4
K:C
V:1 treble nm="MusicXML Part"
V:2 treble nm="MusicXML Part"
V:3 bass nm="MusicXML Part"
V:4 bass nm="MusicXML Part"
V:1
 z8 | d4 d2 z d | cc A3 B c2 | c3 B AG^FG- | G^F/E/ FF G4 | z2 d2 d4 | z dcc c2 c2 | z cBB B4 | %8
w: |Mag- num hae-|re- di- ta- tis mys-|te- * * * * *|* * * * ri- um,|mag- num|hae- re- di- ta- tis,|hae- re- di- ta-|
 A6 G2 | A3 B/c/ dABG | A6 A2 | G4 z4 | G6 A2 | B2 G2 d3 c | BA B4 A2 | G4 G3 F | E2 A3 B/c/ d2 | %17
w: tis mys-|te- * * * * * *|* ri-|um.|Tem- plum|De- i fa- *|* * * ctus|est u- te-|rus ne- sci- ens vi-|
 d4 D4- | D2 E2 ^F2 D2 | A3 G FE F2- | F2 E2 D4 | d3 c B2 E2- | EF/G/ A2 ^F4 | z2 A2 A2 E2 | %24
w: rum, tem-|* plum De- i|fa- * * * *|* ctus est|u- te- rus ne-|* sci- ens vi- rum.|Non est pol-|
 A4 A2 G2 | GFED C2 D2 | D4 D2 G2 | ^FGAG/A/ BG c2- | c2 B2 c4- | c4 z2 C2- | CB, C2 G2 c2- | %31
w: lu- tus ex|e- * * * * a|car- nem as-|su- * * * * * * *|* * mens.|* Om-|* nes gen- tes ve-|
 cBAG F2 E2 | CDEF G2 G2 | dcBe A2 A2 | A2 c4 BA | B2 Bd>cB e2 | E F2 E F2 z G- | G/F/E A2 AB>AG | %38
w: * ni- ent di- cen- tes,|ve- ni- ent di- cen- tes,|ve- ni- ent di- cen- tes,|di- cen- * *|* tes. Glo- ri- a ti-|bi Do- mi- ne, glo-|* ri- a ti- bi, glo- ri- a|
 c2 Ad>cB e2 | c d2 c2 B c2 | z c>BA d>c BG- | GE A>G ^Fd>cB | e2 ^c2 d>=c Bc- | cB c>B A d2 B | %44
w: ti- bi, glo- ri- a ti-|bi Do- mi- * ne,|glo- ri- a, glo- ri- a ti-|* bi, glo- ri- a, glo- ri- a|ti- bi, glo- ri- a ti-|* bi, glo- ri- a ti- bi|
 e>e A2 cB A>A | G8- | G4 z2 C2- | CC C2 G2 c2- | cBAG F2 E2 | CDEF G2 G2 | dcBe A2 A2 | A2 c4 BA | %52
w: Do- mi- ne, ti- bi Do- mi-|ne.|* Om|* nes gen- tes ve-|* ni- ent di cen tes,|ve- ni- ent di- cen- tes,|ve- ni- ent di- cen- tes,|di- cen- * *|
 B2 Bd>cB e2 | E F2 E F2 z G- | G/F/E A2 AB>AG | c2 Ad>cB e2 | c d2 c2 B c2 | z c>BA d>c BG- | %58
w: * tes, glo- ri- a ti-|bi Do- mi- ne, glo-|* ri- a ti- bi, glo- ri- a|ti- bi, glo- ri- a ti-|bi Do- * mi- ne,|glo- ri- a, glo- ri- a ti-|
 GE A>G ^Fd>cB | e2 ^c2 d>=c Bc- | cB c>B A d2 B | e>e A2 cB A>A | G8 |] %63
w: * bi, glo- ri- a, glo- ri- a|ti- bi, glo- ri- a ti-|* bi Do- mi- ne, ti- bi|Do- mi- ne, ti- bi Do- mi-|ne.|
V:2
 B4 B2 z B | AA ^F3 F A2 | A3 G FE/D/ E2- | EF/G/ A3 BAG | A3 A G2 B2 | B4 z BAA | A2 A2 z AGG | %7
w: Mag- num hae-|re- di- ta- tis mys-|te- * * * * *||* ri- um, mag-|num hae- re- di-|ta- tis, hae- re- di-|
 G8 | ^F4 E2 G2- | G2 FE ^F2 G2- | G^F/E/ F G2 F F2 | G4 E4- | E2 F2 G2 FE | D4 G2 E2- | %14
w: ta-|tis mys- te-||* * * * ri- * *|um. Tem-|* plum De- * *|* i fa-|
 EF G4 ^F2 | G4 z2 G2- | GF E2 A,3 B,/C/ | D2 B,2 B,2 C2 | D2 CB, A,4 | D2 _B,2 A,2 D2- | %20
w: * * * ctus|est u-|* te- rus ne- sci- ens|vi- rum, tem- plum|De- * * *|i fa- * *|
 D2 ^C2 D4 | z2 D3 CB,A,- | A,/C/ D2 ^C D2 z D | F2 C2 F2 GF | ED E2 F2 E2- | ED C3 A, B,2- | %26
w: * ctus est|u- te- rus ne-|* sci- ens vi- rum. Non|est pol- lu- * *|* * tus ex e-|* a car- nem as-|
 B,2 A,3 B, G,2 | A,B,CB,/C/ DB, E2 | D4 C4 | z2 E3 D E2 | F4 C2 E2 | DEFG A2 G>F | ED C2 B,2 B2- | %33
w: * su- * *||* mens.|Om- nes gen-|tes ve- ni-|ent * * * * ve- ni-|ent di- cen- tes, ve-|
 BAGA ^F2 F2 | z2 C2 E4 | D4 z G>FE | AA G>G AD>CB, | z C>B,A, D2 B,E- | E/D/C F2 DG>FE | %39
w: * ni- ent di- cen- tes,|di- cen-|tes. Glo- ri- a|ti- bi Do- mi- ne, glo- ri- a|glo- ri- a ti- bi, glo-|* ri- a ti- bi glo- ri- a|
 A2 D G2 DEG- | G/F/E A>G ^F G2 E | C>B, A,D>CB, D>C | B, E2 A,2 B,>A,G, | D2 C2 z F>ED | %44
w: ti- bi Do- mi- ne, glo-|* ri- a, glo- ri- a ti- bi,|glo- ri- a, glo- ri- a glo- ri-|a ti- bi, glo- ri- a|ti- bi, glo- ri- a|
 G3 F/G/ AG G>^F | G4 z4 | z2 E3 D E2 | F4 C2 E2 | DEFG A2 G>F | ED C2 B,2 B2- | BAGA ^F2 F2 | %51
w: ti- * * * bi Do- mi-|ne,|Om nes gen-|tes ve- ni-|ent * * * * ve- ni-|ent di- cen- tes, ve-|* ni- ent di- cen- tes,|
 z2 C2 E4 | D4 z G>FE | AA G>G AD>CB, | z C>B,A, D2 B,E- | E/D/C F2 DG>FE | A2 D G2 DEG- | %57
w: di- cen-|tes, glo- ri- a|ti- bi Do- mi- ne, glo- ri- a|glo- ri- a ti- bi Do-|* mi- ne, ti- bi glo- ri- a,|ti- bi, Do- mi- ne, glo-|
 G/F/E A>G ^F G2 E | C>B, A,D>CB, D>C | B, E2 A,2 B,>A,G, | D2 C2 z F>ED | G3 ^F/G/ AG G>F | G8 |] %63
w: * ri- a, glo- ri- a ti- bi,|glo- ri- a, glo- ri- a, glo- ri-|a ti- bi, glo- ri- a|ti- bi, glo- ri- a|ti- * * * bi Do- mi-|ne.|
V:3
 G,4 G,2 z G, | F,F, D,3 D, F,2 | F,3 E, D,C,/B,,/ A,,2- | A,,2 A,,2 D,4- | D,4 z2 G,2 | %5
w: Mag- num hae-|re- di- ta- tis mys-|te- * * * * *|* ri- um,|* mag-|
 G,4 z G,F,F, | F,2 F,2 z F,E,E, | E,4 D,4- | D,2 C,B,, C,D, E,2 | D,6 B,,2 | C,3 B,,/C,/ D,2 D,2 | %11
w: num hae- re- di-|ta- tis, hae- re- di-|ta- *||tis mys-|te- * * * ri-|
 G,,4 C,4- | C,2 D,2 E,2 C,2 | G,3 A, B,G, C2 | G,4 D,4 | z2 G,,3 F,, E,,2 | A,,3 B,,/C,/ D,4 | %17
w: um. Tem-|* plum De- i|fa- * * * *|ctus est|u- te- rus|ne- sci- ens vi-|
 B,,2 G,,4 A,,2 | B,,2 G,,2 D,3 E, | ^F,D, G,2 D,4 | A,,4 z2 D,2- | D,C, B,,2 E,3 F,/G,/ | %22
w: rum, tem- plum|De- i fa- *|* * * ctus|est u-|* te- rus ne- sci- ens|
 A,2 A,,2 z2 D,2 | D,2 A,,2 D,2 C,2- | C,B,,A,,G,, F,,2 C,2- | C,2 E,3 F, D,2 | G,2 ^F,3 G, E,2 | %27
w: vi- rum. Non|est pol- lu- tus|* * * * * ex|* e- * *|a car- * *|
 D,2 C,2 G,4 | G,,4 z2 C,2- | C,B,, C,2 G,2 CB, | A,G, F,4 E,2 | F,3 E, F,2 C2 | %32
w: nem as- su-|mens. Om-|* nes gen- tes ve- ni-|ent di- cen- tes,|Om- nes gen- tes|
 C,B,,A,,A,, G,,2 G,,2 | G,,A,,B,,C, D,2 D,2 | z2 A,2 G,4 | G,4 G,>F, E,A,- | A,F, C,>C, F,2 z2 | %37
w: ve- ni- ent di- cen- tes,|ve- ni- ent di- cen- tes,|di- cen-|tes. Glo- ri- a ti-|* bi Do- mi- ne,|
 C,>B,, A,, D,2 B,, E,>D, | C, F,2 D, G,>F, E,A,- | A,F, G,3 G, C,2 | C>B, A,D>CB, G,2 | %41
w: glo- ri- a ti- bi, glo- ri-|a ti- bi, glo- ri- a ti-|* bi Do- mi- ne,|glo- ri- a, glo- ri- a ti-|
 E,A,>G,^F, D,>C, B,,E,- | E,A,, A,>G, ^F, G,2 E, | G,>G, C,F,>E,D, G,2- | G,E, D,4 D,2 | %45
w: bi, glo- ri- a, glo- ri- a ti-|* bi, glo- ri- a ti- bi,|Do- mi- ne, glo- ri- a ti-|* bi Do- mi-|
 G,,4 z2 C,2- | C,B,, C,2 G,2 CB, | A,G, F,4 E,2 | F,3 E, F,2 C2 | C,B,,A,,A,, G,,2 E,,2 | %50
w: ne. Om|* nes gen- tes ve- ni-|ent di cen tes,|Om nes gen- tes|ve- ni- ent di cen tes,|
 G,,A,,B,,C, D,2 D,2 | z2 A,2 G,4 | G,4 G,>F, E,A,- | A,F, C,>C, F,2 z2 | %54
w: ve- ni- ent di- cen- tes,|di- cen-|tes, glo- ri- a ti-|* bi Do- mi- ne,|
 C,>B,, A,, D,2 B,, E,>D, | C, F,2 D, G,>F, E,A,- | A,F, G,3 G, C,2 | C>B, A,D>CB, G,2 | %58
w: glo- ri- a ti- bi, glo- ri-|a ti- bi, glo- ri- a ti-|* bi Do- mi- ne,|glo- ri- a, glo- ri- a ti-|
 E,A,>G,^F, D,>C, B,,E,- | E,A,, A,>G, ^F, G,2 E, | G,>G, C,F,>E,D, G,2- | G,E, D,4 D,2 | G,,8 |] %63
w: bi, glo- ri- a, glo- ri- a ti-|* bi, glo- ri- a ti- bi|Do- mi- ne, glo- ri- a ti-|* bi Do- mi-|ne.|
V:4
 G,4 G,3 G, | F,F, D,3 D,F,F, | F,3 E, D,C,/B,,/ A,,2- | A,,2 A,,2 D,4- | D,4"^#" G,,2 G,2 | %5
w: |6 6 # # * 6||* * #|11 * *|
 G,2 G,3 G,F,F, | F,2 F, F,2 F,E,E, | E,2 E,2 D,4- | D,2 C,B,, C,D, E,2 | D,4"^10" D,2 B,,2 | %10
w: * * * 6 6|6 * * * 6 6|6 * *||11 # *|
 C,3 B,,/C,/ D,2"^#" D,2 | G,,4 C,4- | C,2 D,2 E,2 C,2 | G,3 A, B,G, C2 | G,4 D,4"^#" | %15
w: 6 * * 11 #||* * * 6||* 11|
 G,2 G,,3 F,, E,,2 | A,,3 B,,/C,/ D,4 | B,,2 G,,4 A,,2 | B,,2 G,,2 D,3 E, | ^F,D, G,2 D,4 | %20
w: |* * * #||* 6 # *||
 A,,4"^#" D,2 D,2- | D,C, B,,2 E,3 F,/G,/ | A,4"^11" D,2 D,2 | D,2 A,,2 D,2 C,2 | %24
w: 11 * *||# # *||
 C,B,,A,,G,, F,,2 C,2- | C,2 E,2 E,F, D,2 | G,2 ^F,3 G, E,2 | D,2 C,2 G,4"^10 11" | %28
w: * 6 * * * *|* 6 6 * *||* 6 *|
 [G,,G,]4"^10" C,2 C,2- | C,B,, C,2 G,2 CB, | A,G, F,4 E,2 | F,3 E, F,2 C2 | %32
w: 11 * *|* * * 4 * *|* * * 6||
 C,B,,A,,A,, G,,2 G,,2 | G,,A,,B,,C, D,2 D,2 | D,2 A,2 G,4 | G,4 G,>F, E,A,- | %36
w: |* * * * # *|* * 11||
 A,F, C,>C, F,2 G,G,, | C,>B,, A,, D,2 B,, E,>D, | C, F,2 D, G,>F, E,A,- | A,F, G,3 G, C,2 | %40
w: * * 11 10 * * *|||* 6 10 10 *|
 C>B, A,D3/2 C/B, G,G, | E,A,>G,^F, D,>C, B,,E,- | E,A,, A,>G, ^F, G,2 E, | G,2 C,F,>E,D, G,2- | %44
w: |6 * * * * * * *|* * # * * * *||
 G,E, D,2 D,4 | G,,4 C,2 C,2- | C,B,, C,2 G,2"^3" CB, | A,G, F,4 E,2 | F,3 E, F,2 C2 | %49
w: ||* * * 4 * *|||
 C,B,,A,,A,, G,,2 E,,2 | G,,A,,B,,C, D,2 D,2 | D,2 A,2 G,4"^10" | G,4 G,>F, E,A,- | %53
w: |* * * 6 # #|* * 11||
 A,F, C,>"^10"C, F,2 G,G,, | C,>B,, A,, D,2 B,, E,>D, | C, F,2 D, G,>F, E,A,- | %56
w: * * 11 * * * *|||
 A,F, G,3"^11" G, C,2 | C>B, A,D>CB, G,G, | E,A,>G,^F, D,>C, B,,E,- | E,A,, A,>G, ^F, G,2 E, | %60
w: * 6 10 10 *|* * * * * * * 6||* * * * * * 6|
 G,2"^10" C,F,>E,D, G,2- | G,E, D,4"^10#" D,2"^#" | G,,8 |] %63
w: 11 * * * * *|* * 11 11||

